X:1
T: Mr. Cosgill's Delight
N:19 February 1997
C:
S:
A:
O:
R:
M:4/4
K:C
I:speed 212
%W: A
% voice 1 (1 lines, 20 notes)
K:C
M:4/4
L:1/16
e4 g4 c'4 c4 |f3 g e3 f d4 c4 |e4 g4 d4 G4 |c3 d B3 c A4 G4 |
%W:
% voice 1 (1 lines, 20 notes)
e4 g4 c'4 c4 |f3 g e3 f d4 c4 |e4 g4 d4 G4 |c3 d B3 c A4 G4 |
%W: B
% voice 1 (1 lines, 28 notes)
d4 g3 f e4 a3 g |f3 e d3 c B3 A G3 f |e3 f g3 G A3 B c3 g |f3 g e3 f d4 c4 |
%W:
% voice 1 (1 lines, 28 notes)
d4 g3 f e4 a3 g |f3 e d3 c B3 A G3 f |e3 f g3 G A3 B c3 g |f3 g e3 f d4 c4 |
